X:1
T: Out With the Boys
C:
R:Jig
Q:180
K:G
M:6/8
L:1/16
|:(3DEF|G6g4e2|d2B2G2 A2G2E2|D2E2G2 B2A2G2|B2A2A2 A4BA|G6g4e2|d2B2G2 A2G2E2|D2E2G2 B2A2G2|A2G2F2 G4:|
|:d2|e2^d2e2 g2e2g2|e2^d2e2 g2f2g2|e2^d2e2 g2f2g2|f2d2B2 B4d2|e2^d2e2 g2f2g2|a2g2f2 g2f2e2|B2c2B2 A2G2A2|B2G2E2 E4:|
|:(3DEF|G4g2 g2d2B2|G4g2 g2d2B2|D2F2A2 c2B2A2|B2F2A2 G2F2E2|D4g2 g2d2B2|G4g2 g2d2B2|B2c2B2 A2G2A2|B2G2E2 E4:|
